src/assets/svgs/about-icon-01.svg

<?xml version="1.0" encoding="UTF-8" standalone="no"?>
<!DOCTYPE svg PUBLIC "-//W3C//DTD SVG 1.1//EN" "http://www.w3.org/Graphics/SVG/1.1/DTD/svg11.dtd">
<svg width="100%" height="100%" viewBox="0 0 512 512" version="1.1" xmlns="http://www.w3.org/2000/svg" xmlns:xlink="http://www.w3.org/1999/xlink" xml:space="preserve" xmlns:serif="http://www.serif.com/" style="fill-rule:evenodd;clip-rule:evenodd;stroke-linejoin:round;stroke-miterlimit:2;">
    <path d="M330.668,437.332l170.664,0c0,35.348 -28.652,64 -64,64l-362.664,0c-35.348,0 -64,-28.652 -64,-64l170.664,0l0,21.336l149.336,0l0,-21.336Z" style="fill:#e0daeb;fill-rule:nonzero;"/>
    <path d="M469.332,160l0,277.332l-138.664,0l0,21.336l-149.336,0l0,-21.336l-138.664,0l0,-277.332c0.035,-11.766 9.566,-21.297 21.332,-21.332l384,0c11.766,0.035 21.297,9.566 21.332,21.332Zm-42.664,234.668l0,-213.336l-341.336,0l0,213.336l341.336,0Z" style="fill:#fff;fill-rule:nonzero;"/>
    <rect x="85.332" y="181.332" width="341.336" height="213.336" style="fill:#e0daeb;"/>
    <path d="M362.668,288c0,11.781 -9.551,21.332 -21.336,21.332c-11.781,0 -21.332,-9.551 -21.332,-21.332c0,-11.781 9.551,-21.332 21.332,-21.332c11.785,0 21.336,9.551 21.336,21.332Z" style="fill:#fff;fill-rule:nonzero;"/>
    <path d="M202.668,288c0,11.781 -9.551,21.332 -21.336,21.332c-11.781,0 -21.332,-9.551 -21.332,-21.332c0,-11.781 9.551,-21.332 21.332,-21.332c11.785,0 21.336,9.551 21.336,21.332Z" style="fill:#fff;fill-rule:nonzero;"/>
    <path d="M384,53.332l-21.332,128l-202.668,0l-6.293,0.961l-19.199,-128.32l4.16,-0.641l245.332,0Z" style="fill:#fff;fill-rule:nonzero;"/>
    <g>
        <path d="M501.332,426.668l-21.332,0l0,-266.668c0,-17.672 -14.328,-32 -32,-32l-42.668,0l0,21.332l42.668,0c5.891,0 10.668,4.777 10.668,10.668l0,266.668l-128,0c-5.891,0 -10.668,4.773 -10.668,10.664l0,10.668l-128,0l0,-10.668c0,-5.891 -4.777,-10.664 -10.668,-10.664l-128,0l0,-266.668c0,-5.891 4.777,-10.668 10.668,-10.668l42.668,0l0,-21.332l-42.668,0c-17.672,0 -32,14.328 -32,32l0,266.668l-21.332,0c-5.891,0 -10.668,4.773 -10.668,10.664c0.047,41.219 33.449,74.621 74.668,74.668l362.664,0c41.219,-0.047 74.621,-33.449 74.668,-74.668c0,-5.891 -4.777,-10.664 -10.668,-10.664Zm-64,64l-362.664,0c-25.336,-0.027 -47.168,-17.852 -52.27,-42.668l148.27,0l0,10.668c0,5.891 4.773,10.664 10.664,10.664l149.336,0c5.891,0 10.664,-4.773 10.664,-10.664l0,-10.668l148.27,0c-5.102,24.816 -26.934,42.641 -52.27,42.668Z" style="fill:#8058d9;fill-rule:nonzero;"/>
        <path d="M74.668,181.332l0,192c0,17.676 14.324,32 32,32l298.664,0c17.676,0 32,-14.324 32,-32l0,-192l-21.332,0l0,192c0,5.891 -4.777,10.668 -10.668,10.668l-298.664,0c-5.891,0 -10.668,-4.777 -10.668,-10.668l0,-192l-21.332,0Z" style="fill:#8058d9;fill-rule:nonzero;"/>
        <path d="M149.449,225.59c0.789,5.219 5.274,9.078 10.551,9.078l202.668,0l0,-21.336l-193.496,0l-3.199,-21.332l196.695,0c5.211,0 9.656,-3.766 10.516,-8.906l21.332,-128c0.519,-3.094 -0.352,-6.258 -2.375,-8.653c-2.028,-2.394 -5.004,-3.773 -8.141,-3.773l-240.414,0l-5.035,-33.578c-0.781,-5.227 -5.27,-9.09 -10.551,-9.09l-42.668,0l0,21.332l33.484,0l30.633,204.258Zm221.953,-161.59l-17.769,106.668l-190.848,0l-16,-106.668l224.617,0Z" style="fill:#8058d9;fill-rule:nonzero;"/>
        <path d="M213.332,288c0,-17.672 -14.324,-32 -32,-32c-17.672,0 -32,14.328 -32,32c0,17.672 14.328,32 32,32c17.676,0 32,-14.328 32,-32Zm-42.664,0c0,-5.891 4.773,-10.668 10.664,-10.668c5.891,0 10.668,4.777 10.668,10.668c0,5.891 -4.777,10.668 -10.668,10.668c-5.891,0 -10.664,-4.777 -10.664,-10.668Z" style="fill:#8058d9;fill-rule:nonzero;"/>
        <path d="M373.332,288c0,-17.672 -14.324,-32 -32,-32c-17.672,0 -32,14.328 -32,32c0,17.672 14.328,32 32,32c17.676,0 32,-14.328 32,-32Zm-42.664,0c0,-5.891 4.773,-10.668 10.664,-10.668c5.891,0 10.668,4.777 10.668,10.668c0,5.891 -4.777,10.668 -10.668,10.668c-5.891,0 -10.664,-4.777 -10.664,-10.668Z" style="fill:#8058d9;fill-rule:nonzero;"/>
    </g>
</svg>

<?xml version="1.0" encoding="UTF-8" standalone="no"?>
<!DOCTYPE svg PUBLIC "-//W3C//DTD SVG 1.1//EN" "http://www.w3.org/Graphics/SVG/1.1/DTD/svg11.dtd">
<svg width="100%" height="100%" viewBox="0 0 512 512" version="1.1" xmlns="http://www.w3.org/2000/svg" xmlns:xlink="http://www.w3.org/1999/xlink" xml:space="preserve" xmlns:serif="http://www.serif.com/" style="fill-rule:evenodd;clip-rule:evenodd;stroke-linejoin:round;stroke-miterlimit:2;">
    <path d="M330.668,437.332L501.332,437.332C501.332,472.68 472.68,501.332 437.332,501.332L74.668,501.332C39.32,501.332 10.668,472.68 10.668,437.332L181.332,437.332L181.332,458.668L330.668,458.668L330.668,437.332Z" style="fill:rgb(125,210,208);fill-rule:nonzero;"/>
    <path d="M469.332,160L469.332,437.332L330.668,437.332L330.668,458.668L181.332,458.668L181.332,437.332L42.668,437.332L42.668,160C42.703,148.234 52.234,138.703 64,138.668L448,138.668C459.766,138.703 469.297,148.234 469.332,160ZM426.668,394.668L426.668,181.332L85.332,181.332L85.332,394.668L426.668,394.668Z" style="fill:white;fill-rule:nonzero;"/>
    <rect x="85.332" y="181.332" width="341.336" height="213.336" style="fill:rgb(125,210,208);fill-rule:nonzero;"/>
    <path d="M362.668,288C362.668,299.781 353.117,309.332 341.332,309.332C329.551,309.332 320,299.781 320,288C320,276.219 329.551,266.668 341.332,266.668C353.117,266.668 362.668,276.219 362.668,288Z" style="fill:white;fill-rule:nonzero;"/>
    <path d="M202.668,288C202.668,299.781 193.117,309.332 181.332,309.332C169.551,309.332 160,299.781 160,288C160,276.219 169.551,266.668 181.332,266.668C193.117,266.668 202.668,276.219 202.668,288Z" style="fill:white;fill-rule:nonzero;"/>
    <path d="M384,53.332L362.668,181.332L160,181.332L153.707,182.293L134.508,53.973L138.668,53.332L384,53.332Z" style="fill:white;fill-rule:nonzero;"/>
    <g>
        <path d="M501.332,426.668L480,426.668L480,160C480,142.328 465.672,128 448,128L405.332,128L405.332,149.332L448,149.332C453.891,149.332 458.668,154.109 458.668,160L458.668,426.668L330.668,426.668C324.777,426.668 320,431.441 320,437.332L320,448L192,448L192,437.332C192,431.441 187.223,426.668 181.332,426.668L53.332,426.668L53.332,160C53.332,154.109 58.109,149.332 64,149.332L106.668,149.332L106.668,128L64,128C46.328,128 32,142.328 32,160L32,426.668L10.668,426.668C4.777,426.668 0,431.441 0,437.332C0.047,478.551 33.449,511.953 74.668,512L437.332,512C478.551,511.953 511.953,478.551 512,437.332C512,431.441 507.223,426.668 501.332,426.668ZM437.332,490.668L74.668,490.668C49.332,490.641 27.5,472.816 22.398,448L170.668,448L170.668,458.668C170.668,464.559 175.441,469.332 181.332,469.332L330.668,469.332C336.559,469.332 341.332,464.559 341.332,458.668L341.332,448L489.602,448C484.5,472.816 462.668,490.641 437.332,490.668Z" style="fill:rgb(42,152,163);fill-rule:nonzero;"/>
        <path d="M74.668,181.332L74.668,373.332C74.668,391.008 88.992,405.332 106.668,405.332L405.332,405.332C423.008,405.332 437.332,391.008 437.332,373.332L437.332,181.332L416,181.332L416,373.332C416,379.223 411.223,384 405.332,384L106.668,384C100.777,384 96,379.223 96,373.332L96,181.332L74.668,181.332Z" style="fill:rgb(42,152,163);fill-rule:nonzero;"/>
        <path d="M149.449,225.59C150.238,230.809 154.723,234.668 160,234.668L362.668,234.668L362.668,213.332L169.172,213.332L165.973,192L362.668,192C367.879,192 372.324,188.234 373.184,183.094L394.516,55.094C395.035,52 394.164,48.836 392.141,46.441C390.113,44.047 387.137,42.668 384,42.668L143.586,42.668L138.551,9.09C137.77,3.863 133.281,0 128,0L85.332,0L85.332,21.332L118.816,21.332L149.449,225.59ZM371.402,64L353.633,170.668L162.785,170.668L146.785,64L371.402,64Z" style="fill:rgb(42,152,163);fill-rule:nonzero;"/>
        <path d="M213.332,288C213.332,270.328 199.008,256 181.332,256C163.66,256 149.332,270.328 149.332,288C149.332,305.672 163.66,320 181.332,320C199.008,320 213.332,305.672 213.332,288ZM170.668,288C170.668,282.109 175.441,277.332 181.332,277.332C187.223,277.332 192,282.109 192,288C192,293.891 187.223,298.668 181.332,298.668C175.441,298.668 170.668,293.891 170.668,288Z" style="fill:rgb(42,152,163);fill-rule:nonzero;"/>
        <path d="M373.332,288C373.332,270.328 359.008,256 341.332,256C323.66,256 309.332,270.328 309.332,288C309.332,305.672 323.66,320 341.332,320C359.008,320 373.332,305.672 373.332,288ZM330.668,288C330.668,282.109 335.441,277.332 341.332,277.332C347.223,277.332 352,282.109 352,288C352,293.891 347.223,298.668 341.332,298.668C335.441,298.668 330.668,293.891 330.668,288Z" style="fill:rgb(42,152,163);fill-rule:nonzero;"/>
    </g>
</svg>
